lib/preview_tmp/nrk-logo-preview-nrk-3-with-bg.svg

<svg width="68" height="28" viewBox="0 0 68 28" fill="none" xmlns="http://www.w3.org/2000/svg">
<rect width="67.3333" height="28" fill="#064E42"/>
<path d="M6.66663 21V7.00129H11.26V21H6.66663ZM17.5094 9.22926L20.151 21H15.124L11.9697 7.00129H14.7892C15.4357 6.9929 16.063 7.22081 16.5535 7.64214C17.0449 8.0458 17.3824 8.60617 17.5094 9.22926ZM20.8411 21V7.00129H25.4345V21H20.8411ZM28.9038 12.3248C28.4089 12.3296 27.9218 12.2001 27.4946 11.9501C27.073 11.7065 26.7229 11.3563 26.4793 10.9347C26.229 10.5074 26.0995 10.0202 26.1044 9.52506C26.0988 9.03289 26.2284 8.54863 26.4793 8.12519C26.7255 7.70818 27.0752 7.3618 27.4946 7.11963C27.922 6.86994 28.4089 6.74045 28.9038 6.74497C29.3959 6.73967 29.8799 6.86927 30.3035 7.11963C30.7187 7.36392 31.0647 7.71001 31.309 8.12519C31.5596 8.54875 31.6892 9.03293 31.6838 9.52506C31.6884 10.0202 31.5589 10.5073 31.309 10.9347C31.0673 11.3545 30.7209 11.7043 30.3035 11.9501C29.8799 12.201 29.3955 12.3306 28.9032 12.3248H28.9038ZM32.3935 21V7.00129H36.9873V21H32.3935ZM42.8027 14.6513C42.8156 14.6649 42.9141 14.8259 43.0983 15.1343C43.2826 15.4428 43.5224 15.8372 43.8179 16.3174C44.1136 16.7973 44.4257 17.3067 44.754 17.8454C45.0824 18.384 45.3913 18.8934 45.6809 19.3734C45.9694 19.8534 46.298 20.3956 46.6666 21H41.6198C41.3041 20.4874 41.0181 20.0241 40.7618 19.61C40.5056 19.196 40.2331 18.749 39.9444 18.2693C39.6551 17.7899 39.369 17.3233 39.0862 16.8694C38.8034 16.4155 38.5604 16.0179 38.3571 15.6766C38.153 15.3351 38.0116 15.105 37.9329 14.9865C37.7379 14.6924 37.6225 14.3527 37.5981 14.0007C37.6176 13.6628 37.7263 13.3362 37.9132 13.054C37.992 12.9225 38.1366 12.6892 38.3469 12.354C38.5572 12.0188 38.8036 11.6212 39.0862 11.1612C39.3688 10.7011 39.6549 10.2312 39.9444 9.75146C40.234 9.27169 40.5064 8.82146 40.7618 8.40084C41.0186 7.98066 41.3046 7.51404 41.6198 7.00097H46.6666L42.7629 13.3694C42.6421 13.5585 42.574 13.7764 42.5657 14.0007C42.5787 14.2361 42.6609 14.4624 42.8019 14.6513H42.8027Z" fill="white"/>
<path d="M60.2985 15.7546C60.1619 15.3611 59.9475 14.9991 59.668 14.6901C59.3774 14.3776 59.0248 14.1292 58.6327 13.9607C58.1837 13.7676 57.7088 13.6414 57.2231 13.5862V13.527C57.8127 13.3396 58.3615 13.0418 58.84 12.6497C59.2668 12.2996 59.6186 11.8672 59.8746 11.3782C60.1171 10.9091 60.2424 10.3883 60.2397 9.86026C60.2488 9.41208 60.1471 8.96858 59.944 8.56901C59.7362 8.1824 59.4389 7.85117 59.0769 7.60304C58.6558 7.31645 58.184 7.11241 57.6868 7.00177C57.0757 6.86318 56.4504 6.79702 55.8239 6.80464C55.4116 6.80592 54.9999 6.83557 54.5918 6.89336C54.1695 6.95169 53.7514 7.03728 53.3402 7.14962C52.9444 7.25677 52.5611 7.40546 52.1965 7.59319L52.4725 9.15057C52.7616 9.03229 53.041 8.93044 53.3106 8.84501C53.5803 8.75959 53.8398 8.69059 54.089 8.63802C54.3388 8.58588 54.582 8.54644 54.8188 8.51972C55.0479 8.49385 55.2781 8.48069 55.5087 8.48029C55.9259 8.4734 56.3426 8.51309 56.751 8.59859C57.0469 8.65808 57.3281 8.77531 57.5786 8.94358C57.7831 9.08753 57.9435 9.28546 58.042 9.51527C58.1463 9.77512 58.1967 10.0535 58.1901 10.3334C58.1957 10.7179 58.1041 11.0976 57.924 11.4373C57.7407 11.7723 57.4847 12.062 57.1748 12.285C56.8255 12.5348 56.4352 12.7216 56.0216 12.837C55.5407 12.9733 55.0428 13.0397 54.5431 13.0342H54.1682L53.932 14.5718H54.5628C55.1445 14.564 55.7256 14.6135 56.2976 14.7197C56.7257 14.7962 57.1364 14.9498 57.5097 15.1731C57.8151 15.3591 58.064 15.6249 58.2295 15.9419C58.3941 16.2827 58.475 16.6578 58.4657 17.036C58.4762 17.4187 58.4022 17.799 58.2489 18.1499C58.1025 18.4612 57.8742 18.727 57.5885 18.9187C57.2471 19.1414 56.8655 19.2954 56.4652 19.3721C55.9363 19.4779 55.3977 19.5275 54.8585 19.52C54.6613 19.52 54.4674 19.5134 54.2766 19.5003C54.0858 19.4871 53.8854 19.4674 53.6754 19.4411C53.4653 19.4148 53.2453 19.3787 53.0153 19.3327C52.7853 19.2867 52.5323 19.2308 52.2563 19.1651L52 20.8408C52.2887 20.8933 52.568 20.9426 52.8378 20.9886C53.1077 21.0346 53.3737 21.0741 53.6359 21.1069C53.8988 21.1393 54.1552 21.1623 54.4051 21.1759C54.655 21.1895 54.8981 21.1961 55.1345 21.1956C55.7627 21.2005 56.3899 21.1444 57.0073 21.0281C57.5319 20.9301 58.0398 20.7575 58.5154 20.5155C58.9306 20.3048 59.3045 20.021 59.619 19.6777C59.9155 19.3481 60.1434 18.9628 60.2893 18.5441C60.4459 18.0841 60.5227 17.6008 60.5164 17.1149C60.522 16.6524 60.4483 16.1923 60.2985 15.7546Z" fill="#BEF7ED"/>
</svg>

<svg xmlns="http://www.w3.org/2000/svg" viewBox="0 0 68 28"><path fill="#064E42" d="M0 0h67.333v28H0z"/><path fill="#fff" d="M6.667 21V7.001h4.593V21H6.667ZM17.509 9.23 20.151 21h-5.027L11.97 7.001h2.82a2.655 2.655 0 0 1 1.764.641c.49.404.828.964.955 1.587ZM20.841 21V7.001h4.593V21h-4.593Zm8.063-8.675a2.738 2.738 0 0 1-1.41-.375 2.777 2.777 0 0 1-1.015-1.015 2.735 2.735 0 0 1-.375-1.41 2.686 2.686 0 0 1 .375-1.4 2.812 2.812 0 0 1 3.825-1.005c.415.244.76.59 1.005 1.005.25.424.38.908.375 1.4.004.495-.125.982-.375 1.41a2.8 2.8 0 0 1-1.006 1.015c-.423.251-.908.38-1.4.375ZM32.394 21V7.001h4.593V21h-4.593Zm10.409-6.349c.013.014.111.175.295.483.185.309.424.703.72 1.183a366.453 366.453 0 0 1 1.863 3.056c.288.48.617 1.023.986 1.627H41.62a744.12 744.12 0 0 0-.858-1.39c-.256-.414-.529-.861-.818-1.34-.289-.48-.575-.947-.858-1.4a71.148 71.148 0 0 1-.729-1.193 20.758 20.758 0 0 0-.424-.69 2.04 2.04 0 0 1-.335-.986c.02-.338.128-.665.315-.947.079-.132.224-.365.434-.7a210.216 210.216 0 0 0 1.598-2.603c.289-.48.561-.93.817-1.35L41.62 7h5.047l-3.904 6.368c-.12.19-.189.407-.197.632.013.235.095.461.236.65Z"/><path fill="#BEF7ED" d="M60.298 15.755a3.105 3.105 0 0 0-.63-1.065 3.068 3.068 0 0 0-1.035-.73 4.996 4.996 0 0 0-1.41-.374v-.059a4.887 4.887 0 0 0 1.617-.877 4.11 4.11 0 0 0 1.035-1.272c.242-.469.367-.99.365-1.518a2.728 2.728 0 0 0-.296-1.291 2.749 2.749 0 0 0-.867-.966 4.025 4.025 0 0 0-1.39-.601 7.984 7.984 0 0 0-1.863-.197c-.412 0-.824.03-1.232.088-.422.059-.84.144-1.252.257-.396.107-.779.255-1.144.443l.276 1.558c.29-.119.569-.22.839-.306a7.92 7.92 0 0 1 1.508-.325c.229-.026.46-.04.69-.04a5.61 5.61 0 0 1 1.242.119c.296.06.577.176.828.345.204.144.364.341.463.571.104.26.155.538.148.818.006.385-.086.765-.266 1.104-.183.335-.44.625-.75.848-.349.25-.739.437-1.152.552-.481.136-.98.203-1.479.197h-.375l-.236 1.538h.63a8.853 8.853 0 0 1 1.736.148c.428.076.838.23 1.212.453.305.186.554.452.72.769.164.34.245.716.236 1.094.01.383-.064.763-.217 1.114a1.9 1.9 0 0 1-.66.769 3.136 3.136 0 0 1-1.124.453 7.65 7.65 0 0 1-1.607.148c-.197 0-.39-.007-.581-.02a10.9 10.9 0 0 1-.602-.059 9.196 9.196 0 0 1-.66-.108c-.23-.046-.483-.102-.759-.168L52 20.841c.289.052.568.102.838.148s.536.085.798.118c.263.032.52.055.77.069.249.014.492.02.729.02a9.708 9.708 0 0 0 1.872-.168 5.588 5.588 0 0 0 1.508-.512c.416-.211.79-.495 1.104-.838.297-.33.524-.715.67-1.134.157-.46.234-.943.227-1.43a4.05 4.05 0 0 0-.218-1.36Z"/></svg>
